symbols/web/assignment_returned/materialsymbolsrounded/assignment_returned_wght600grad200_24px.svg

<svg xmlns="http://www.w3.org/2000/svg" height="24" width="24"><path d="M10.975 15.6q.45.45 1.063.45.612 0 1.087-.475l2.55-2.55q.4-.375.4-.938 0-.562-.4-.987-.4-.375-.975-.375t-.95.4l-.35.35V8.85q0-.575-.4-.988-.4-.412-.975-.412t-.975.412q-.4.413-.4.988v2.625l-.35-.35q-.4-.4-.962-.4-.563 0-.938.375-.425.425-.425.987 0 .563.425.938Zm-5.9 3.4h13.85V5.175H5.075V19Zm0-13.825V19 5.175Zm0 16.9q-1.3 0-2.187-.9Q2 20.275 2 19V5.175q0-1.3.888-2.188.887-.887 2.187-.887H8.4Q9 1.15 9.938.6 10.875.05 12 .05q1.125 0 2.062.55.938.55 1.538 1.5h3.325q1.3 0 2.188.887.887.888.887 2.188V19q0 1.275-.887 2.175-.888.9-2.188.9ZM12 4.275q.375 0 .625-.263.25-.262.25-.612 0-.375-.25-.613-.25-.237-.625-.237t-.625.237q-.25.238-.25.613 0 .35.25.612.25.263.625.263Z"/></svg>

<svg xmlns="http://www.w3.org/2000/svg" height="24" width="24"><path d="M10.975 15.6Q11.425 16.05 12.038 16.05Q12.65 16.05 13.125 15.575L15.675 13.025Q16.075 12.65 16.075 12.087Q16.075 11.525 15.675 11.1Q15.275 10.725 14.7 10.725Q14.125 10.725 13.75 11.125L13.4 11.475V8.85Q13.4 8.275 13 7.862Q12.6 7.45 12.025 7.45Q11.45 7.45 11.05 7.862Q10.65 8.275 10.65 8.85V11.475L10.3 11.125Q9.9 10.725 9.338 10.725Q8.775 10.725 8.4 11.1Q7.975 11.525 7.975 12.087Q7.975 12.65 8.4 13.025ZM5.075 22.075Q3.775 22.075 2.888 21.175Q2 20.275 2 19V5.175Q2 3.875 2.888 2.987Q3.775 2.1 5.075 2.1H8.4Q9 1.15 9.938 0.6Q10.875 0.05 12 0.05Q13.125 0.05 14.062 0.6Q15 1.15 15.6 2.1H18.925Q20.225 2.1 21.113 2.987Q22 3.875 22 5.175V19Q22 20.275 21.113 21.175Q20.225 22.075 18.925 22.075ZM12 4.275Q12.375 4.275 12.625 4.012Q12.875 3.75 12.875 3.4Q12.875 3.025 12.625 2.787Q12.375 2.55 12 2.55Q11.625 2.55 11.375 2.787Q11.125 3.025 11.125 3.4Q11.125 3.75 11.375 4.012Q11.625 4.275 12 4.275ZM5.075 19H18.925Q18.925 19 18.925 19Q18.925 19 18.925 19V5.175Q18.925 5.175 18.925 5.175Q18.925 5.175 18.925 5.175H5.075Q5.075 5.175 5.075 5.175Q5.075 5.175 5.075 5.175V19Q5.075 19 5.075 19Q5.075 19 5.075 19ZM5.075 5.175Q5.075 5.175 5.075 5.175Q5.075 5.175 5.075 5.175V19Q5.075 19 5.075 19Q5.075 19 5.075 19Q5.075 19 5.075 19Q5.075 19 5.075 19V5.175Q5.075 5.175 5.075 5.175Q5.075 5.175 5.075 5.175Z"/></svg>
